**harmony	**harte	**kern	**silbe	**rhyme	**timestamp	**phrase
*M4/4	*M4/4	*ICvox	*	*	*	*
*	*	*VRlead	*	*	*	*
*	*	*Hstimme	*	*	*	*
*G:	*G:	*G:	*	*	*	*
1r;	0	r;	.	.	0	.
=1	=1	=1	=1	=1	=1	=1
*>Letter>A	*>Letter>A	*>Letter>A	*>Letter>A	*>Letter>A	*>Letter>A	*>Letter>A
*>Label>Intro	*>Label>Intro	*>Label>Intro	*>Label>Intro	*>Label>Intro	*>Label>Intro	*>Label>Intro
*	*	*M4/4	*	*	*	*
*	*	*clefG2	*	*	*	*
1GM	G:maj	1r	.	.	1.305	newline
=2	=2	=2	=2	=2	=2	=2
1DM	D:maj	1r	.	.	3.915	.
=3	=3	=3	=3	=3	=3	=3
1GM	G:maj	1r	.	.	6.525	.
=4	=4	=4	=4	=4	=4	=4
1DM	D:maj	1r	.	.	9.135	.
=5	=5	=5	=5	=5	=5	=5
1GM	G:maj	1r	.	.	11.745	newline
=6	=6	=6	=6	=6	=6	=6
1DM	D:maj	1r	.	.	14.385	.
=7	=7	=7	=7	=7	=7	=7
2CM	C:maj	1r	.	.	17.026	.
2GM	G:maj/3	.	.	.	18.346	.
=8	=8	=8	=8	=8	=8	=8
1B-M	B-:maj6	1r	.	.	19.667	.
=9	=9	=9	=9	=9	=9	=9
1CM	C:maj	1r	.	.	22.307	.
=10	=10	=10	=10	=10	=10	=10
1GM	G:maj	1r	.	.	24.948	newline
=11	=11	=11	=11	=11	=11	=11
1DM	D:maj	1r	.	.	27.521	.
=12	=12	=12	=12	=12	=12	=12
1GM	G:maj	1r	.	.	30.094	.
=13	=13	=13	=13	=13	=13	=13
1DM	D:maj	1r	.	.	32.667	.
=14	=14	=14	=14	=14	=14	=14
1GM	G:maj	1r	.	.	35.239	newline
=15	=15	=15	=15	=15	=15	=15
1DM	D:maj	1r	.	.	37.734	.
=16	=16	=16	=16	=16	=16	=16
2CM	C:maj	1r	.	.	40.229	.
2GM	G:maj	.	.	.	41.476	.
=17	=17	=17	=17	=17	=17	=17
2DM	D:maj	1r	.	.	42.723	.
2GM	G:maj	.	.	.	43.971	.
=18	=18	=18	=18	=18	=18	=18
2DM	D:maj	1r	.	.	45.218	.
2GM	G:maj	.	.	.	46.466	.
=19	=19	=19	=19	=19	=19	=19
1DM	D:maj	2r	.	.	47.713	.
.	.	4r	.	.	.	.
.	.	8r	.	.	.	.
.	.	8F#	Hey	.	.	.
=20	=20	=20	=20	=20	=20	=20
*>Letter>B	*>Letter>B	*>Letter>B	*>Letter>B	*>Letter>B	*>Letter>B	*>Letter>B
*>Label>Preverse	*>Label>Preverse	*>Label>Preverse	*>Label>Preverse	*>Label>Preverse	*>Label>Preverse	*>Label>Preverse
1GM	G:maj	8G	la-	.	50.208	newline
.	.	8B	-dy	A	.	.
.	.	4r	.	.	.	.
.	.	4r	.	.	.	.
.	.	16F#	you	.	.	.
.	.	8F#	got	.	.	.
.	.	16G	the	.	.	.
=21	=21	=21	=21	=21	=21	=21
1DM	D:maj	16A	love	.	52.893	.
.	.	8.A	I	.	.	.
.	.	4F#	need	A	.	.
.	.	2r	.	.	.	.
=22	=22	=22	=22	=22	=22	=22
1GM	G:maj	4r	.	.	55.578	.
.	.	8G	May-	.	.	.
.	.	8B	-be	A	.	.
.	.	4r	.	.	.	.
.	.	8r	.	.	.	.
.	.	8B	more	.	.	.
=23	=23	=23	=23	=23	=23	=23
1DM	D:maj	16B	than	.	58.264	.
.	.	8B	e-	.	.	.
.	.	16B	-nough	B	.	.
.	.	8A	_	.	.	.
.	.	8r	.	.	.	.
.	.	4r	.	.	.	.
.	.	4d	Oh	.	.	.
=24	=24	=24	=24	=24	=24	=24
1GM	G:maj	16d	dar-	.	60.949	newline
.	.	16B	_	.	.	.
.	.	8B	-lin'	.	.	.
.	.	16B	dar-	.	.	.
.	.	16G	_	.	.	.
.	.	16G	-lin'	.	.	.
.	.	[16G	dar-	.	.	.
.	.	16G]	_	.	.	.
.	.	8G	-lin'	.	.	.
.	.	16r	.	.	.	.
.	.	8r	.	.	.	.
.	.	16B	walk	.	.	.
.	.	16B	a	.	.	.
=25	=25	=25	=25	=25	=25	=25
1DM	D:maj	16B	while	.	63.457	.
.	.	8A	_	.	.	.
.	.	16A	with	.	.	.
.	.	16A	me	A	.	.
.	.	16B	_	.	.	.
.	.	8r	.	.	.	.
.	.	2r	.	.	.	.
=26	=26	=26	=26	=26	=26	=26
2CM	C:maj	4r	.	.	65.965	.
.	.	8r	.	.	.	.
.	.	4c	Oh	.	.	.
2GM	G:maj	.	.	.	67.219	.
.	.	4B	_	.	.	.
.	.	8B	you've	.	.	.
=27	=27	=27	=27	=27	=27	=27
2DM	D:maj	8.B	got	.	68.473	.
.	.	8.A	so	.	.	.
.	.	16A	much	B	.	.
.	.	8.B	_	.	.	.
2GM	G:maj	.	.	.	69.727	.
.	.	8r	.	.	.	.
.	.	4r	.	.	.	.
=28	=28	=28	=28	=28	=28	=28
2DM	D:maj	4r	.	.	70.981	.
.	.	16r	.	.	.	.
.	.	8.A	so	.	.	.
2GM	G:maj	16A	much	.	72.235	.
.	.	8.B	_	.	.	.
.	.	4r	.	.	.	.
=29	=29	=29	=29	=29	=29	=29
2DM	D:maj	4r	.	.	73.489	.
.	.	8r	.	.	.	.
.	.	8.A	so	.	.	.
2AM	A:maj	.	.	.	74.743	.
.	.	16A	much	.	.	.
.	.	8.B	_	.	.	.
.	.	8.r	.	.	.	.
=30	=30	=30	=30	=30	=30	=30
2GM	G:maj	1r	.	.	75.997	.
2AM	A:maj	.	.	.	77.251	.
=31	=31	=31	=31	=31	=31	=31
2GM	G:maj	1r	.	.	78.505	.
2AM	A:maj	.	.	.	79.759	.
=32	=32	=32	=32	=32	=32	=32
2GM	G:maj	1r	.	.	81.013	.
2AM	A:maj	.	.	.	82.267	.
=33	=33	=33	=33	=33	=33	=33
2GM	G:maj	1r	.	.	83.521	.
4DM	D:maj	.	.	.	84.775	.
4AM	A:maj	.	.	.	85.402	.
=34	=34	=34	=34	=34	=34	=34
*>Letter>C	*>Letter>C	*>Letter>C	*>Letter>C	*>Letter>C	*>Letter>C	*>Letter>C
*>Label>Verse	*>Label>Verse	*>Label>Verse	*>Label>Verse	*>Label>Verse	*>Label>Verse	*>Label>Verse
2GM	G:maj	16dd	Ma-	.	86.029	newline
.	.	8dd	-ny	.	.	.
.	.	8b	have	.	.	.
.	.	8b	I	.	.	.
.	.	8.a	loved	.	.	.
2AM	A:maj	.	.	.	87.249	.
.	.	8r	.	.	.	.
.	.	8r	.	.	.	.
.	.	16r	.	.	.	.
.	.	16d	and	.	.	.
=35	=35	=35	=35	=35	=35	=35
2GM	G:maj	16f#	ma-	.	88.469	.
.	.	8a	-ny	.	.	.
.	.	8.a	time	.	.	.
.	.	8f#	been	.	.	.
4DM	D:maj	16a	bi-	(C	89.689	.
.	.	8.b	-tten	c)	.	.
4AM	A:maj	8.r	.	.	90.299	.
.	.	16b	And	.	.	.
=36	=36	=36	=36	=36	=36	=36
2GM	G:maj	16dd	ma-	.	90.909	.
.	.	8dd	-ny	.	.	.
.	.	8.b	times	.	.	.
.	.	8b	I've	.	.	.
2AM	A:maj	16a	gazed	.	92.129	.
.	.	16b	_	.	.	.
.	.	[4a	_	.	.	.
.	.	16a]	_	.	.	.
.	.	16d	a-	.	.	.
=37	=37	=37	=37	=37	=37	=37
2GM	G:maj	8.f#	-long	.	93.349	.
.	.	16a	the	.	.	.
.	.	8a	o-	.	.	.
.	.	8b	-pen	.	.	.
2AM	A:maj	16b	road	D	94.569	.
.	.	[8.a	_	.	.	.
.	.	4a]	_	.	.	.
=38	=38	=38	=38	=38	=38	=38
2GM	G:maj	1r	.	.	95.789	newline
2AM	A:maj	.	.	.	96.963	.
=39	=39	=39	=39	=39	=39	=39
2GM	G:maj	1r	.	.	98.137	.
2AM	A:maj	.	.	.	99.311	.
=40	=40	=40	=40	=40	=40	=40
2GM	G:maj	1r	.	.	100.485	.
2AM	A:maj	.	.	.	101.66	.
=41	=41	=41	=41	=41	=41	=41
2GM	G:maj	1r	.	.	102.834	.
4DM	D:maj	.	.	.	104.008	.
4AM	A:maj	.	.	.	104.595	.
=42	=42	=42	=42	=42	=42	=42
2GM	G:maj	16dd	Ma-	.	105.182	newline
.	.	8dd	-ny	.	.	.
.	.	8b	times	.	.	.
.	.	8b	I've	.	.	.
.	.	8b	lied	.	.	.
2AM	A:maj	.	.	.	106.387	.
.	.	8.a	_	.	.	.
.	.	8r	.	.	.	.
.	.	16r	.	.	.	.
.	.	16d	and	.	.	.
=43	=43	=43	=43	=43	=43	=43
2GM	G:maj	16f#	ma-	.	107.592	.
.	.	8a	-ny	.	.	.
.	.	8a	times	.	.	.
.	.	8f#	I've	.	.	.
.	.	8a	list-	(C	.	.
4DM	D:maj	.	.	.	108.797	.
.	.	8b	-ened	c)	.	.
.	.	16r	.	.	.	.
4AM	A:maj	4r	.	.	109.399	.
=44	=44	=44	=44	=44	=44	=44
2GM	G:maj	16dd	Ma-	.	110.002	.
.	.	8dd	-ny	.	.	.
.	.	8.b	times	.	.	.
.	.	8b	I've	.	.	.
2AM	A:maj	16a	won-	.	111.207	.
.	.	16b	_	.	.	.
.	.	4a	-dered	.	.	.
.	.	8d	how	.	.	.
=45	=45	=45	=45	=45	=45	=45
2GM	G:maj	8.f#	much	.	112.412	.
.	.	16a	there	.	.	.
.	.	6a	is	.	.	.
.	.	6b	to	.	.	.
2AM	A:maj	.	.	.	113.617	.
.	.	6b	know	D	.	.
.	.	[4a	_	.	.	.
=46	=46	=46	=46	=46	=46	=46
2GM	G:maj	4a]	_	.	114.821	newline
.	.	4r	.	.	.	.
2AM	A:maj	2r	.	.	115.993	.
=47	=47	=47	=47	=47	=47	=47
2GM	G:maj	1r	.	.	117.164	.
2AM	A:maj	.	.	.	118.335	.
=48	=48	=48	=48	=48	=48	=48
2GM	G:maj	1r	.	.	119.507	.
2AM	A:maj	.	.	.	120.678	.
=49	=49	=49	=49	=49	=49	=49
2GM	G:maj	1r	.	.	121.849	.
4DM	D:maj	.	.	.	123.021	.
4AM	A:maj	.	.	.	123.606	.
=50	=50	=50	=50	=50	=50	=50
*>Letter>D	*>Letter>D	*>Letter>D	*>Letter>D	*>Letter>D	*>Letter>D	*>Letter>D
*>Label>Verse	*>Label>Verse	*>Label>Verse	*>Label>Verse	*>Label>Verse	*>Label>Verse	*>Label>Verse
2GM	G:maj	16dd	Ma-	.	124.192	newline
.	.	8dd	-ny	.	.	.
.	.	8.b	dreams	.	.	.
.	.	8b	come	.	.	.
2AM	A:maj	4a	true	.	125.377	.
.	.	8r	.	.	.	.
.	.	16r	.	.	.	.
.	.	16d	and	.	.	.
=51	=51	=51	=51	=51	=51	=51
2GM	G:maj	8f#	some	.	126.563	.
.	.	8a	have	.	.	.
.	.	8a	sil-	.	.	.
.	.	16f#	-ver	.	.	.
.	.	8a	li-	.	.	.
4DM	D:maj	.	.	.	127.748	.
.	.	8.b	-nings	.	.	.
4AM	A:maj	4r	.	.	128.341	.
=52	=52	=52	=52	=52	=52	=52
2GM	G:maj	8dd	I	.	128.934	.
.	.	8dd	live	.	.	.
.	.	8b	for	.	.	.
.	.	8b	my	.	.	.
2AM	A:maj	4a	dream	.	130.119	.
.	.	8r	.	.	.	.
.	.	16d	and	.	.	.
.	.	16d	a	.	.	.
=53	=53	=53	=53	=53	=53	=53
2GM	G:maj	8f#	po-	.	131.305	.
.	.	8a	-cket	.	.	.
.	.	8a	full	.	.	.
.	.	8b	of	.	.	.
2AM	A:maj	8r	.	.	132.49	.
.	.	16b	gold	D	.	.
.	.	[8.a	_	.	.	.
.	.	8a]	_	.	.	.
=54	=54	=54	=54	=54	=54	=54
*>Label>>Interlude	*>Label>>Interlude	*>Label>>Interlude	*>Label>>Interlude	*>Label>>Interlude	*>Label>>Interlude	*>Label>>Interlude
2GM	G:maj	1r	.	.	133.676	newline
2DM	D:maj	.	.	.	134.844	.
=55	=55	=55	=55	=55	=55	=55
4AM	A:maj	1r	.	.	136.013	.
2.EM	E:maj	.	.	.	136.597	.
=56	=56	=56	=56	=56	=56	=56
2GM	G:maj	1r	.	.	138.351	.
2DM	D:maj	.	.	.	139.519	.
=57	=57	=57	=57	=57	=57	=57
4AM	A:maj	1r	.	.	140.688	.
2.EM	E:maj	.	.	.	141.273	.
=58	=58	=58	=58	=58	=58	=58
2GM	G:maj	1r	.	.	143.026	.
2DM	D:maj	.	.	.	144.195	.
=59	=59	=59	=59	=59	=59	=59
2AM	A:maj	1r	.	.	145.363	.
2EM	E:maj	.	.	.	146.532	.
=60	=60	=60	=60	=60	=60	=60
*>Letter>E	*>Letter>E	*>Letter>E	*>Letter>E	*>Letter>E	*>Letter>E	*>Letter>E
*>Label>Solo	*>Label>Solo	*>Label>Solo	*>Label>Solo	*>Label>Solo	*>Label>Solo	*>Label>Solo
*f#:	*f#:	*f#:	*	*	*	*
1F#m	F#:5	1r	.	.	147.701	newline
=61	=61	=61	=61	=61	=61	=61
1F#m	F#:5	1r	.	.	.	.
=62	=62	=62	=62	=62	=62	=62
1F#m	F#:5	1r	.	.	.	.
=63	=63	=63	=63	=63	=63	=63
1F#m	F#:5	1r	.	.	.	.
=64	=64	=64	=64	=64	=64	=64
1F#m	F#:5	1r	.	.	.	newline
=65	=65	=65	=65	=65	=65	=65
1F#m	F#:5	1r	.	.	.	.
=66	=66	=66	=66	=66	=66	=66
1F#m	F#:5	1r	.	.	.	.
=67	=67	=67	=67	=67	=67	=67
1F#m	F#:5	1r	.	.	.	.
=68	=68	=68	=68	=68	=68	=68
1F#m	F#:5	1r	.	.	.	newline
=69	=69	=69	=69	=69	=69	=69
1F#m	F#:5	1r	.	.	.	.
=70	=70	=70	=70	=70	=70	=70
1F#m	F#:5	1r	.	.	.	.
=71	=71	=71	=71	=71	=71	=71
*M3/4	*M3/4	*M3/4	*	*	*	*
2.F#m	F#:5	2.r	.	.	.	.
=72	=72	=72	=72	=72	=72	=72
2.F#Mm	F#:7	2.r	.	.	.	newline
=73	=73	=73	=73	=73	=73	=73
2.F#Mm	F#:7	2.r	.	.	.	.
=74	=74	=74	=74	=74	=74	=74
2.F#Mm	F#:7	2.r	.	.	.	.
=75	=75	=75	=75	=75	=75	=75
*M2/4	*M2/4	*M2/4	*	*	*	*
2F#M	F#:maj	2r	.	.	.	.
=76	=76	=76	=76	=76	=76	=76
*M4/4	*M4/4	*M4/4	*	*	*	*
*G:	*G:	*G:	*	*	*	*
2GM	G:maj	1r	.	.	.	newline
2AM	A:maj	.	.	.	.	.
=77	=77	=77	=77	=77	=77	=77
2GM	G:maj	1r	.	.	.	.
2AM	A:maj	.	.	.	.	.
=78	=78	=78	=78	=78	=78	=78
2GM	G:maj	1r	.	.	.	.
2AM	A:maj	.	.	.	.	.
=79	=79	=79	=79	=79	=79	=79
2GM	G:maj	1r	.	.	.	.
4DM	D:maj	.	.	.	.	.
4AM	A:maj	.	.	.	.	.
=80	=80	=80	=80	=80	=80	=80
*>Letter>G	*>Letter>G	*>Letter>G	*>Letter>G	*>Letter>G	*>Letter>G	*>Letter>G
*>Label>Verse	*>Label>Verse	*>Label>Verse	*>Label>Verse	*>Label>Verse	*>Label>Verse	*>Label>Verse
2GM	G:maj	16dd	Me-	.	.	newline
.	.	8dd	-llow	.	.	.
.	.	8b	is	.	.	.
.	.	8b	the	.	.	.
.	.	8.a	man	.	.	.
2AM	A:maj	.	.	.	.	.
.	.	8r	.	.	.	.
.	.	8r	.	.	.	.
.	.	8d	who	.	.	.
=81	=81	=81	=81	=81	=81	=81
2GM	G:maj	8f#	knows	.	.	.
.	.	8a	what	.	.	.
.	.	8a	he's	.	.	.
.	.	8f#	been	.	.	.
4DM	D:maj	16a	mis-	(C	.	.
.	.	8.b	-sing	c)	.	.
4AM	A:maj	4r	.	.	.	.
=82	=82	=82	=82	=82	=82	=82
2GM	G:maj	16dd	Ma-	.	.	newline
.	.	8dd	-ny	.	.	.
.	.	8b	ma-	.	.	.
.	.	8b	-ny	.	.	.
.	.	16a	men	.	.	.
2AM	A:maj	16b	_	.	.	.
.	.	8a	_	.	.	.
.	.	16r	.	.	.	.
.	.	8r	.	.	.	.
.	.	8d	can't	.	.	.
=83	=83	=83	=83	=83	=83	=83
2GM	G:maj	8f#	see	.	.	.
.	.	16a	the	.	.	.
.	.	8a	o-	.	.	.
.	.	8.b	-pen	.	.	.
2AM	D:maj/5	16b	road	D	.	.
.	.	8.a	_	.	.	.
.	.	4r	.	.	.	.
=84	=84	=84	=84	=84	=84	=84
2GM	G:maj/5	1r	.	.	.	newline
2AM	A:maj	.	.	.	.	.
=85	=85	=85	=85	=85	=85	=85
2GM	G:maj/5	1r	.	.	.	.
2AM	A:maj	.	.	.	.	.
=86	=86	=86	=86	=86	=86	=86
2GM	G:maj/5	1r	.	.	.	.
2AM	A:maj	.	.	.	.	.
=87	=87	=87	=87	=87	=87	=87
2GM	G:maj/5	1r	.	.	.	.
4DM	D:maj	.	.	.	.	.
4AM	A:maj	.	.	.	.	.
=88	=88	=88	=88	=88	=88	=88
2GM	G:maj	16dd	Ma-	.	.	newline
.	.	8dd	-ny	.	.	.
.	.	8b	is	.	.	.
.	.	8b	a	.	.	.
.	.	8.a	word	.	.	.
2AM	A:maj	.	.	.	.	.
.	.	8r	.	.	.	.
.	.	8r	.	.	.	.
.	.	16d	that	.	.	.
.	.	[16f#	on-	.	.	.
=89	=89	=89	=89	=89	=89	=89
2GM	G:maj	16f#]	_	.	.	.
.	.	8.a	-ly	.	.	.
.	.	8a	leaves	.	.	.
.	.	16f#	you	.	.	.
.	.	8a	guess-	.	.	.
4DM	D:maj	.	.	.	.	.
.	.	8.b	-in'	.	.	.
4AM	A:maj	4r	.	.	.	.
=90	=90	=90	=90	=90	=90	=90
2GM	G:maj	8dd	Guess-	.	.	.
.	.	16dd	-in'	.	.	.
.	.	8b	'bout	.	.	.
.	.	16b	a	.	.	.
.	.	4.a	thing	.	.	.
2AM	A:maj	.	.	.	.	.
.	.	8r	.	.	.	.
.	.	8d	you	.	.	.
=91	=91	=91	=91	=91	=91	=91
1GM	G:maj	8f#	rea-	.	.	.
.	.	8a	-lly	.	.	.
.	.	8a	ought-	.	.	.
.	.	8b	-ta	.	.	.
.	.	8b	know	D	.	.
.	.	4.a	_	.	.	.
=92	=92	=92	=92	=92	=92	=92
1DM	D:maj	8b	oh	.	.	newline
.	.	4a	_	.	.	.
.	.	8b	oh	.	.	.
.	.	[4a	_	.	.	.
.	.	16a]	_	.	.	.
.	.	8b	oh	.	.	.
.	.	[16a	_	.	.	.
=93	=93	=93	=93	=93	=93	=93
1GM	G:maj	4a_	_	.	.	.
.	.	16a]	_	.	.	.
.	.	8b	oh	.	.	.
.	.	4a	_	.	.	.
.	.	16r	.	.	.	.
.	.	8f#	Rea-	.	.	.
.	.	8a	-lly	.	.	.
=94	=94	=94	=94	=94	=94	=94
1DM	D:maj	8a	ought-	.	.	.
.	.	8b	-ta	.	.	.
.	.	8b	know	.	.	.
.	.	4.a	_	.	.	.
.	.	4r	.	.	.	.
=95	=95	=95	=95	=95	=95	=95
1GM	G:maj	2r	.	.	.	.
.	.	8r	.	.	.	.
.	.	8d	I	.	.	.
.	.	16f#	rea-	.	.	.
.	.	8.a	-lly	.	.	.
=96	=96	=96	=96	=96	=96	=96
1DM	D:maj	16a	ought-	.	.	newline
.	.	8.b	-ta	.	.	.
.	.	16b	know	.	.	.
.	.	16dd	_	.	.	.
.	.	[4.a	_	.	.	.
.	.	4a]	_	.	.	.
=97	=97	=97	=97	=97	=97	=97
1GM	G:maj	2r	.	.	.	.
.	.	[2b	Ah	.	.	.
=98	=98	=98	=98	=98	=98	=98
1DM	D:maj	2b_	_	.	.	.
.	.	8b]	_	.	.	.
.	.	8dd	ooh	.	.	.
.	.	[4a	oh	.	.	.
=99	=99	=99	=99	=99	=99	=99
1GM	G:maj	8.a]	_	.	.	.
.	.	16f#	You	.	.	.
.	.	8f#	know	.	.	.
.	.	8e	I	.	.	.
.	.	8d	should	.	.	.
.	.	16d	You	.	.	.
.	.	8f#	know	.	.	.
.	.	8e	I	.	.	.
.	.	[16d	should	.	.	.
=100	=100	=100	=100	=100	=100	=100
1DM	D:maj	8d]	_	.	.	.
.	.	16d	You	.	.	.
.	.	8f#	know	.	.	.
.	.	8a	I	.	.	.
.	.	8a	should	.	.	.
.	.	8.f#	know	.	.	.
.	.	4r	.	.	.	.
=101	=101	=101	=101	=101	=101	=101
1GM	G:maj	1r	.	.	.	.
=102	=102	=102	=102	=102	=102	=102
1DM	D:maj	1r	.	.	.	.
=103	=103	=103	=103	=103	=103	=103
*>Letter>A2	*>Letter>A2	*>Letter>A2	*>Letter>A2	*>Letter>A2	*>Letter>A2	*>Letter>A2
*>Label>Outro	*>Label>Outro	*>Label>Outro	*>Label>Outro	*>Label>Outro	*>Label>Outro	*>Label>Outro
1GM	G:maj	1r	.	.	.	newline
=104	=104	=104	=104	=104	=104	=104
1DM	D:maj	1r	.	.	.	.
=105	=105	=105	=105	=105	=105	=105
1GM	G:maj	1r	.	.	.	.
=106	=106	=106	=106	=106	=106	=106
1DM	D:maj	1r	.	.	.	.
=107	=107	=107	=107	=107	=107	=107
1GM	G:maj	1r	.	.	.	newline
=108	=108	=108	=108	=108	=108	=108
1DM	D:maj	1r	.	.	.	.
=109	=109	=109	=109	=109	=109	=109
2CM	C:maj	1r	.	.	.	.
2GM	G:maj/3	.	.	.	.	.
=110	=110	=110	=110	=110	=110	=110
1B-M	B-:maj6	1r	.	.	.	.
=111	=111	=111	=111	=111	=111	=111
1CM	C:maj	1r	.	.	.	.
=112	=112	=112	=112	=112	=112	=112
1GM	G:maj	1r	.	.	.	.
1r;	1r	r;	.	.	.	.
1r;	1r	r;	.	.	.	.
*-	*-	*-	*-	*-	*-	*-
!!!BillboardChartDate: 1973/06/30, 1973/08/11
!!!BillboardPeak: 51, 51
!!!BillboardWeeksOnChart: 8, 8
!!!COC: Led Zeppelin
!!!EMD: The solo in mcgill transcription was WAY too long. Interpetations of meter were wrong. 
!!!EMD: Timestamps from solo are off so I removed them. The rest are suspect as well.
!!!ENC: Nathaniel Condit-Schultz
!!!EST: Awating manual error checking and editing.
!!!OTL: Over The Hills And Far Away
!!!RDF**chordsym: original McGill chord annotation + (implied pitch class set, with bass pitch in first position)
!!!RDF**harmony: **recip + pitch class of root + harmonic quality
!!!RDF**leadinstrument: original McGill primary instrumentation annotation
!!!RDF**phrase: newline = linebreak in original McGill transcription
!!!RDF**timestamp: McGill audio timestamp in seconds
!!!RDT: 2017/01/12/
!!!SampleActualRank: 81, 64
!!!SampleID#: 53, 1025
!!!SampleTargetRank: 80, 64
!!!MBID: f52edb9a-aff7-4ff9-ba76-85b84399ff9b
